assets/abbott/original.svg

<svg viewBox="0 0 24 24" xmlns="http://www.w3.org/2000/svg" fill="#008FC7"><path d="m20.812 2.4h-20.812v3.197h19.773v.003a1.03 1.03 0 0 1 1.032 1.031v10.742l-.004.007a1.034 1.034 0 0 1 -1.034 1.025h-15.537c-.569 0-1.033-.46-1.033-1.033v-4.34c0-.57.464-1.032 1.033-1.032h13.37v-3.197h-14.412a3.185 3.185 0 0 0 -3.188 3.187v6.423a3.188 3.188 0 0 0 3.188 3.187h17.624a3.187 3.187 0 0 0 3.188-3.188v-12.825a3.186 3.186 0 0 0 -3.188-3.187"/></svg>

<svg xmlns="http://www.w3.org/2000/svg" fill="#008fc7" viewBox="0 0 24 24"><path d="M20.812 2.4H0v3.197h19.773V5.6a1.03 1.03 0 0 1 1.032 1.031v10.742l-.004.007a1.034 1.034 0 0 1-1.034 1.025H4.23c-.569 0-1.033-.46-1.033-1.033v-4.34c0-.57.464-1.032 1.033-1.032H17.6V8.803H3.188A3.185 3.185 0 0 0 0 11.99v6.423A3.19 3.19 0 0 0 3.188 21.6h17.624A3.187 3.187 0 0 0 24 18.412V5.587A3.186 3.186 0 0 0 20.812 2.4"/></svg>
